svg/aws-ec2-instances.svg

<?xml version="1.0" encoding="UTF-8"?>
<svg xmlns="http://www.w3.org/2000/svg" xmlns:xlink="http://www.w3.org/1999/xlink" width="32" height="32" viewBox="0 0 32 32">
<path fill-rule="evenodd" fill="rgb(83.137255%, 35.686275%, 2.745098%)" fill-opacity="1" d="M 2.753906 15.308594 L 6.65625 15.308594 L 6.65625 16.640625 L 2.753906 16.640625 C 2.375 16.640625 2.015625 16.492188 1.746094 16.226562 C 1.480469 15.957031 1.332031 15.597656 1.332031 15.21875 L 1.332031 2.753906 C 1.332031 1.96875 1.96875 1.332031 2.753906 1.332031 L 15.21875 1.332031 C 16.003906 1.332031 16.640625 1.96875 16.640625 2.753906 L 16.640625 7.238281 L 15.308594 7.238281 L 15.308594 2.753906 C 15.308594 2.707031 15.265625 2.667969 15.21875 2.667969 L 2.753906 2.667969 C 2.707031 2.667969 2.667969 2.707031 2.667969 2.753906 L 2.667969 15.21875 C 2.667969 15.265625 2.707031 15.308594 2.753906 15.308594 M 9.15625 22.292969 L 14.1875 22.292969 L 14.1875 23.625 L 9.15625 23.625 C 8.375 23.625 7.738281 22.988281 7.738281 22.207031 L 7.738281 9.738281 C 7.738281 8.957031 8.375 8.320312 9.15625 8.320312 L 21.625 8.320312 C 22.40625 8.320312 23.042969 8.957031 23.042969 9.738281 L 23.042969 14.226562 L 21.710938 14.226562 L 21.710938 9.738281 C 21.710938 9.691406 21.671875 9.652344 21.625 9.652344 L 9.15625 9.652344 C 9.109375 9.652344 9.070312 9.691406 9.070312 9.738281 L 9.070312 22.207031 C 9.070312 22.253906 9.109375 22.292969 9.15625 22.292969 M 29.234375 29.28125 L 16.640625 29.234375 L 16.640625 16.726562 C 16.640625 16.679688 16.679688 16.640625 16.726562 16.640625 L 29.191406 16.640625 C 29.242188 16.640625 29.28125 16.679688 29.28125 16.726562 Z M 29.191406 15.308594 L 16.726562 15.308594 C 15.945312 15.308594 15.308594 15.945312 15.308594 16.726562 L 15.308594 29.234375 C 15.308594 29.992188 15.925781 30.613281 16.6875 30.613281 L 29.234375 30.613281 C 29.992188 30.613281 30.613281 29.992188 30.613281 29.234375 L 30.613281 16.726562 C 30.613281 15.945312 29.976562 15.308594 29.191406 15.308594 M 29.191406 15.308594 "/>
</svg>

<svg role="img" viewBox="0 0 32 32" height="32" width="32" xmlns="http://www.w3.org/2000/svg"><path d="M2.754 15.309h3.902v1.332H2.754c-.379 0-.738-.149-1.008-.414a1.431 1.431 0 0 1-.414-1.008V2.754c0-.785.637-1.422 1.422-1.422h12.465c.785 0 1.422.637 1.422 1.422v4.484h-1.332V2.754c0-.047-.043-.086-.09-.086H2.754a.087.087 0 0 0-.086.086v12.465c0 .047.039.09.086.09m6.402 6.984h5.031v1.332h-5.03a1.42 1.42 0 0 1-1.419-1.418V9.738A1.42 1.42 0 0 1 9.156 8.32h12.469a1.42 1.42 0 0 1 1.418 1.418v4.489h-1.332V9.738a.087.087 0 0 0-.086-.086H9.156a.087.087 0 0 0-.086.086v12.469c0 .047.04.086.086.086m20.078 6.988-12.593-.047V16.727c0-.047.039-.086.086-.086H29.19c.051 0 .09.039.09.086Zm-.043-13.972H16.727a1.42 1.42 0 0 0-1.418 1.418v12.507c0 .758.617 1.38 1.379 1.38h12.546c.758 0 1.38-.622 1.38-1.38V16.727c0-.782-.637-1.418-1.423-1.418m0 0" fill="rgb(83.137255%, 35.686275%, 2.745098%)" fill-rule="evenodd"/></svg>
